destiny4.0/Norte/ilimitada_avanzada_300/img/section-mobile/5G.svg

<?xml version="1.0" encoding="UTF-8"?>
<svg width="40px" height="40px" viewBox="0 0 40 40" version="1.1" xmlns="http://www.w3.org/2000/svg" xmlns:xlink="http://www.w3.org/1999/xlink">
    <title>Icons+Indicators / System-Icons / thunder-3</title>
    <g id="PDP" stroke="none" stroke-width="1" fill="none" fill-rule="evenodd">
        <g id="PDP-Oferta-Norte-Desktop---Destiny-4.0---Ilimitada-Avanzada-300" transform="translate(-32.000000, -1309.000000)">
            <g id="Blocks/-Desktop-/-Product-detail-/-Example" transform="translate(20.000000, 572.000000)">
                <g id="Product-detail-/-Desktop-Tablet-/-3-lines-Copy" transform="translate(0.000000, 725.000000)">
                    <g id="5G-mid" transform="translate(8.000000, 8.000000)">
                        <g id="Apps_ic_mid" transform="translate(15.250000, 18.000000)" stroke="#E60000" stroke-linecap="round" stroke-linejoin="round">
                            <path d="M15.25,6.5 L18.75,6.5 L18.75,9.5 C18.7813329,10.5996212 18.0595483,11.579186 17,11.875 C14.93,12.44 10.75,12.8075 10.75,6 C10.75,-1.375 17.39,-0.475 18.375,1.375" id="Path"></path>
                            <path d="M5.71,0.0975 L0.625,0.0975 L0.625,5.3475 L1.1725,5.0775 C2.84669024,4.36664829 4.78909399,4.98458108 5.74483739,6.53208801 C6.70058078,8.07959493 6.38334826,10.0930836 4.99808525,11.2717564 C3.61282225,12.4504292 1.57451712,12.4411867 0.2,11.25" id="Path"></path>
                        </g>
                        <rect id="Rectangle" x="0" y="0" width="48" height="48"></rect>
                        <path d="M24,5 C34.4934102,5 43,13.5065898 43,24 C43,34.4934102 34.4934102,43 24,43 C13.5065898,43 5,34.4934102 5,24 C5,13.5065898 13.5065898,5 24,5 L24,5 Z M24,4 C12.954305,4 4,12.954305 4,24 C4,35.045695 12.954305,44 24,44 C35.045695,44 44,35.045695 44,24 C44,12.954305 35.045695,4 24,4 L24,4 Z" id="Shape" fill="#6D6A69" fill-rule="nonzero"></path>
                    </g>
                </g>
            </g>
        </g>
    </g>
</svg>

<svg width="40" height="40" viewBox="0 0 40 40" xmlns="http://www.w3.org/2000/svg"><g id="PDP" stroke="none" stroke-width="1" fill="none" fill-rule="evenodd"><g id="PDP-Oferta-Norte-Desktop---Destiny-4.0---Ilimitada-Avanzada-300" transform="translate(-32 -1309)"><g id="Blocks/-Desktop-/-Product-detail-/-Example" transform="translate(20 572)"><g id="Product-detail-/-Desktop-Tablet-/-3-lines-Copy" transform="translate(0 725)"><g id="5G-mid" transform="translate(8 8)"><g id="Apps_ic_mid" transform="translate(15.25 18)" stroke="#E60000" stroke-linecap="round" stroke-linejoin="round"><path d="M15.25 6.5h3.5v3c.031 1.1-.69 2.08-1.75 2.375-2.07.565-6.25.932-6.25-5.875 0-7.375 6.64-6.475 7.625-4.625M5.71.098H.625v5.25l.548-.27A3.682 3.682 0 11.2 11.25" id="Path"/></g><path id="Rectangle" d="M0 0h48v48H0z"/><path d="M24 5c10.493 0 19 8.507 19 19s-8.507 19-19 19S5 34.493 5 24 13.507 5 24 5zm0-1C12.954 4 4 12.954 4 24s8.954 20 20 20 20-8.954 20-20S35.046 4 24 4z" id="Shape" fill="#6D6A69" fill-rule="nonzero"/></g></g></g></g></g></svg>
